src/assets/icons/letters,fancy,serif-t.svg

<svg width="48" height="48" viewBox="0 0 48 48" fill="none" xmlns="http://www.w3.org/2000/svg">
<path d="M39.2542 16.1H37.6202C37.5442 14.8587 37.3542 13.8327 37.0502 13.022C36.7715 12.186 36.3662 11.5273 35.8342 11.046C35.3022 10.5393 34.6562 10.1973 33.8962 10.02C33.1362 9.81733 32.2495 9.716 31.2362 9.716C30.2482 9.716 29.4502 9.74133 28.8422 9.792C28.2595 9.81733 27.8035 9.88067 27.4742 9.982C27.1702 10.058 26.9675 10.172 26.8662 10.324C26.7648 10.476 26.7142 10.666 26.7142 10.894V30.806C26.7142 31.6167 26.7648 32.3133 26.8662 32.896C26.9928 33.4787 27.2335 33.96 27.5882 34.34C27.9428 34.6947 28.4622 34.9733 29.1462 35.176C29.8302 35.3533 30.7295 35.4547 31.8442 35.48V37H15.9222V35.48C17.0622 35.4547 17.9742 35.3533 18.6582 35.176C19.3422 34.9733 19.8615 34.6947 20.2162 34.34C20.5962 33.96 20.8368 33.4787 20.9382 32.896C21.0648 32.3133 21.1282 31.6167 21.1282 30.806V10.894C21.1282 10.666 21.0775 10.476 20.9762 10.324C20.9002 10.172 20.7228 10.058 20.4442 9.982C20.1655 9.88067 19.7602 9.81733 19.2282 9.792C18.7215 9.74133 18.0502 9.716 17.2142 9.716C16.3022 9.716 15.4282 9.76666 14.5922 9.868C13.7562 9.944 13.0215 10.1973 12.3882 10.628C11.7548 11.0333 11.2355 11.6667 10.8302 12.528C10.4502 13.364 10.2475 14.5547 10.2222 16.1H8.74018L9.12018 7.74H38.8742L39.2542 16.1Z" fill="black"/>
</svg>

<svg xmlns="http://www.w3.org/2000/svg" width="48" height="48" fill="none" viewBox="0 0 48 48">
  <path fill="#000" d="M39.254 16.1H37.62c-.076-1.241-.266-2.267-.57-3.078-.278-.836-.684-1.495-1.216-1.976a4.103 4.103 0 00-1.938-1.026c-.76-.203-1.647-.304-2.66-.304-.988 0-1.786.025-2.394.076-.582.025-1.038.089-1.368.19-.304.076-.506.19-.608.342a1.005 1.005 0 00-.152.57v19.912c0 .81.05 1.507.152 2.09.127.583.367 1.064.722 1.444.355.355.874.633 1.558.836.684.177 1.584.279 2.698.304V37H15.922v-1.52c1.14-.025 2.052-.127 2.736-.304.684-.203 1.203-.481 1.558-.836.38-.38.62-.861.722-1.444.127-.583.19-1.28.19-2.09V10.894c0-.228-.05-.418-.152-.57-.076-.152-.253-.266-.532-.342-.278-.101-.684-.165-1.216-.19a21.168 21.168 0 00-2.014-.076c-.912 0-1.786.05-2.622.152-.836.076-1.57.33-2.204.76-.633.405-1.152 1.039-1.558 1.9-.38.836-.582 2.027-.608 3.572H8.74l.38-8.36h29.754l.38 8.36z"/>
</svg>
